files/1/Numix/256x256/actions/add-folders-to-archive.svg

<?xml version="1.0" encoding="UTF-8" standalone="no"?>
<svg
   xmlns:dc="http://purl.org/dc/elements/1.1/"
   xmlns:cc="http://creativecommons.org/ns#"
   xmlns:rdf="http://www.w3.org/1999/02/22-rdf-syntax-ns#"
   xmlns:svg="http://www.w3.org/2000/svg"
   xmlns="http://www.w3.org/2000/svg"
   xmlns:sodipodi="http://sodipodi.sourceforge.net/DTD/sodipodi-0.dtd"
   xmlns:inkscape="http://www.inkscape.org/namespaces/inkscape"
   width="256"
   height="256"
   viewBox="0 0 256 256"
   version="1.1"
   id="svg2"
   inkscape:version="0.48.5 r10040"
   sodipodi:docname="add-folders-to-archive.svg">
  <metadata
     id="metadata15">
    <rdf:RDF>
      <cc:Work
         rdf:about="">
        <dc:format>image/svg+xml</dc:format>
        <dc:type
           rdf:resource="http://purl.org/dc/dcmitype/StillImage" />
      </cc:Work>
    </rdf:RDF>
  </metadata>
  <defs
     id="defs13" />
  <sodipodi:namedview
     pagecolor="#ffffff"
     bordercolor="#666666"
     borderopacity="1"
     objecttolerance="10"
     gridtolerance="10"
     guidetolerance="10"
     inkscape:pageopacity="0"
     inkscape:pageshadow="2"
     inkscape:window-width="1280"
     inkscape:window-height="998"
     id="namedview11"
     showgrid="false"
     inkscape:zoom="1.3037281"
     inkscape:cx="152.07799"
     inkscape:cy="70.067537"
     inkscape:window-x="0"
     inkscape:window-y="0"
     inkscape:window-maximized="1"
     inkscape:current-layer="svg2" />
  <g
     id="surface1"
     transform="matrix(2.0000042,0,0,2.0000042,4.7962548e-4,-7.9e-4)">
    <path
       style="fill:#b07f51;fill-opacity:1;fill-rule:nonzero;stroke:none"
       d="M 4.125,48 C 1.867188,48.222656 -0.0351562,50.355469 0,52.625 l 0,70.75 c -0.0273438,2.42969 2.195312,4.65234 4.625,4.625 l 67.375,0 0,-16 -24,0 0,-40 24,0 0,-16 -4,0 0,-3.375 C 68.027344,50.238281 65.886719,48.039062 63.5,48 L 4.625,48 c -0.167969,-0.0078 -0.332031,-0.0078 -0.5,0 z m 0,0"
       id="path5"
       inkscape:connector-curvature="0" />
    <path
       style="fill:#c28f5c;fill-opacity:1;fill-rule:nonzero;stroke:none"
       d="M 20.125,0 C 17.867188,0.222656 15.964844,2.355469 16,4.625 l 0,70.75 c -0.02734,2.429688 2.195312,4.652344 4.625,4.625 L 48,80 l 0,-8 24,0 0,-24 40,0 0,24 16,0 0,-59.375 C 128.02734,10.195312 125.80469,7.972656 123.375,8 L 84,8 84,4.625 C 84.027344,2.238281 81.886719,0.0390625 79.5,0 L 20.625,0 c -0.167969,-0.0078125 -0.332031,-0.0078125 -0.5,0 z m 0,0"
       id="path7"
       inkscape:connector-curvature="0" />
    <path
       style="fill:#859900;fill-opacity:1;fill-rule:nonzero;stroke:none"
       d="m 128,80 -24,0 0,-24 -24,0 0,24 -24,0 0,24 24,0 0,24 24,0 0,-24 24,0 z m 0,0"
       id="path9"
       inkscape:connector-curvature="0" />
  </g>
</svg>

<svg xmlns="http://www.w3.org/2000/svg" xmlns:xlink="http://www.w3.org/1999/xlink" width="128px" height="128px" viewBox="0 0 128 128" version="1.1">
<g id="surface1">
<path style=" stroke:none;fill-rule:nonzero;fill:rgb(69.019608%,50.588235%,32.941176%);fill-opacity:1;" d="M 4.125 48 C 1.867188 48.222656 -0.0351562 50.355469 0 52.625 L 0 123.375 C -0.0273438 125.804688 2.195312 128.027344 4.625 128 L 72 128 L 72 112 L 48 112 L 48 72 L 72 72 L 72 56 L 68 56 L 68 52.625 C 68.027344 50.238281 65.886719 48.039062 63.5 48 L 4.625 48 C 4.457031 47.992188 4.292969 47.992188 4.125 48 Z M 4.125 48 "/>
<path style=" stroke:none;fill-rule:nonzero;fill:rgb(76.862745%,56.470588%,36.862745%);fill-opacity:1;" d="M 20.125 0 C 17.867188 0.222656 15.964844 2.355469 16 4.625 L 16 75.375 C 15.972656 77.804688 18.195312 80.027344 20.625 80 L 48 80 L 48 72 L 72 72 L 72 48 L 112 48 L 112 72 L 128 72 L 128 12.625 C 128.027344 10.195312 125.804688 7.972656 123.375 8 L 84 8 L 84 4.625 C 84.027344 2.238281 81.886719 0.0390625 79.5 0 L 20.625 0 C 20.457031 -0.0078125 20.292969 -0.0078125 20.125 0 Z M 20.125 0 "/>
<path style=" stroke:none;fill-rule:nonzero;fill:rgb(52.156863%,60%,0%);fill-opacity:1;" d="M 128 80 L 104 80 L 104 56 L 80 56 L 80 80 L 56 80 L 56 104 L 80 104 L 80 128 L 104 128 L 104 104 L 128 104 Z M 128 80 "/>
</g>
</svg>
